X: 38
T:Wars Alarms. WCl.38
M:2/4
L:1/8
Q:120
C:In a different hand
S:William Clarke MS,Lincoln,1770.
R:Air
O:Lincoln
A:England
N:This tune written in different hand, and on an added piece of
N:paper.....
Z:vmp.Barry Callaghan
W:
K:G
d2Be|A3c|BGEA|GFED|G2G2|GABc|d2 cB|{B}A4|!
d2 Be|A3c|BGEA|GFED|G2G2|GABc|B2"tr"A2|G4||!
e2 e^d|eBcB|c2 cB|AGFE|c2 F2|B2 e2|B>AG>F|E3F|!
G2 G2|e3 d|cBAG|F/2G/2A/2F/2 D2|d2 Be|A3 c|B2"tr"A2|G4||
